assets/symbols/mulberry/usb_stick.svg

<svg height="850.394" viewBox="0 0 850.394 850.394" width="850.394" xmlns="http://www.w3.org/2000/svg"><path d="m526.26 360.1v344.82c0 50.01-33.71 90.561-83.72 90.561h-32.82c-50.01 0-83.72-40.551-83.72-90.561v-345.68zm0-216.52v79.66l-200.26-.86v-78.8c0-50.02 33.71-90.56 83.72-90.56h32.82c50.01 0 83.72 40.54 83.72 90.56z" fill="#2c308c"/><path d="m496.22 263.44v94.95h-139.43v-94.95zm-30.79 63.73v-32.51h-18.82v32.51zm-60.31-.43v-32.51h-18.82v32.51z" fill="#c8c8c8"/><path d="m446.61 294.66h18.819v32.51h-18.819zm-60.31-.43h18.82v32.51h-18.82z" fill="#231f20"/><g fill="none"><g stroke="#231f20"><path d="m526.26 360.1v344.82c0 50.01-33.71 90.561-83.72 90.561h-32.82c-50.01 0-83.72-40.551-83.72-90.561v-345.68zm0-136.86v-79.66c0-50.02-33.71-90.56-83.72-90.56h-32.82c-50.01 0-83.72 40.54-83.72 90.56v78.8zm-169.47 40.2h139.43v94.95h-139.43z" stroke-width="21"/><path d="m386.3 294.23h18.82v32.51h-18.82zm60.31.43h18.819v32.51h-18.819z" stroke-width="14"/></g><path d="m0 0h850.394v850.394h-850.394z"/></g></svg>

<svg xmlns="http://www.w3.org/2000/svg" width="850.394" height="850.394" viewBox="0 0 850.394 850.394" overflow="visible"><path d="M526.26 360.1v344.82c0 50.01-33.71 90.561-83.72 90.561h-32.82c-50.01 0-83.72-40.551-83.72-90.561V359.24l200.26.86zM526.26 143.58v79.66L326 222.38v-78.8c0-50.02 33.71-90.56 83.72-90.56h32.82c50.01 0 83.72 40.54 83.72 90.56z" fill="#2c308c"/><path d="M496.22 263.44v94.95H356.79v-94.95h139.43zm-30.79 63.73v-32.51h-18.82v32.51h18.82zm-60.31-.43v-32.51H386.3v32.51h18.82z" fill="#c8c8c8"/><path fill="#231f20" d="M446.61 294.66h18.819v32.51H446.61zM386.3 294.23h18.82v32.51H386.3z"/><g fill="none" stroke="#231f20"><path d="M526.26 360.1v344.82c0 50.01-33.71 90.561-83.72 90.561h-32.82c-50.01 0-83.72-40.551-83.72-90.561V359.24l200.26.86zM526.26 223.24v-79.66c0-50.02-33.71-90.56-83.72-90.56h-32.82c-50.01 0-83.72 40.54-83.72 90.56v78.8l200.26.86zM356.79 263.44h139.43v94.95H356.79z" stroke-width="21"/><path stroke-width="14" d="M386.3 294.23h18.82v32.51H386.3zM446.61 294.66h18.819v32.51H446.61z"/></g><path fill="none" d="M0 0h850.394v850.394H0z"/></svg>
